src/media/network.svg

<svg enable-background="new 0 0 55 55" height="512" viewBox="0 0 55 55" width="512" xmlns="http://www.w3.org/2000/svg"><path d="m49 0c-3.309 0-6 2.691-6 6 0 1.035.263 2.009.726 2.86l-9.829 9.829c-1.355-1.055-3.051-1.689-4.897-1.689s-3.542.634-4.898 1.688l-7.669-7.669c.352-.595.567-1.279.567-2.019 0-2.206-1.794-4-4-4s-4 1.794-4 4 1.794 4 4 4c.74 0 1.424-.215 2.019-.567l7.669 7.669c-1.054 1.356-1.688 3.052-1.688 4.898s.634 3.542 1.688 4.897l-12.664 12.665c-1.066-.967-2.475-1.562-4.024-1.562-3.309 0-6 2.691-6 6s2.691 6 6 6 6-2.691 6-6c0-1.035-.263-2.009-.726-2.86l12.829-12.829c1.106.86 2.44 1.436 3.898 1.619v10.16c-2.833.478-5 2.942-5 5.91 0 3.309 2.691 6 6 6s6-2.691 6-6c0-2.967-2.167-5.431-5-5.91v-10.16c1.458-.183 2.792-.759 3.898-1.619l7.669 7.669c-.353.596-.568 1.28-.568 2.02 0 2.206 1.794 4 4 4s4-1.794 4-4-1.794-4-4-4c-.74 0-1.424.215-2.019.567l-7.669-7.669c1.054-1.356 1.688-3.052 1.688-4.898s-.634-3.542-1.688-4.897l9.665-9.665c1.065.967 2.474 1.562 4.023 1.562 3.309 0 6-2.691 6-6s-2.691-6-6-6zm-38 9c0-1.103.897-2 2-2s2 .897 2 2-.897 2-2 2-2-.897-2-2zm-5 42c-2.206 0-4-1.794-4-4s1.794-4 4-4 4 1.794 4 4-1.794 4-4 4zm27-2c0 2.206-1.794 4-4 4s-4-1.794-4-4 1.794-4 4-4 4 1.794 4 4zm-4-18c-3.309 0-6-2.691-6-6s2.691-6 6-6 6 2.691 6 6-2.691 6-6 6zm18 10c0 1.103-.897 2-2 2s-2-.897-2-2 .897-2 2-2 2 .897 2 2zm2-31c-2.206 0-4-1.794-4-4s1.794-4 4-4 4 1.794 4 4-1.794 4-4 4z" fill="#fff"/></svg>

<?xml version="1.0"?>
<svg xmlns="http://www.w3.org/2000/svg" xmlns:xlink="http://www.w3.org/1999/xlink" version="1.1" id="Capa_1" x="0px" y="0px" viewBox="0 0 55 55" style="enable-background:new 0 0 55 55;" xml:space="preserve" width="512px" height="512px"><g><path d="M49,0c-3.309,0-6,2.691-6,6c0,1.035,0.263,2.009,0.726,2.86l-9.829,9.829C32.542,17.634,30.846,17,29,17  s-3.542,0.634-4.898,1.688l-7.669-7.669C16.785,10.424,17,9.74,17,9c0-2.206-1.794-4-4-4S9,6.794,9,9s1.794,4,4,4  c0.74,0,1.424-0.215,2.019-0.567l7.669,7.669C21.634,21.458,21,23.154,21,25s0.634,3.542,1.688,4.897L10.024,42.562  C8.958,41.595,7.549,41,6,41c-3.309,0-6,2.691-6,6s2.691,6,6,6s6-2.691,6-6c0-1.035-0.263-2.009-0.726-2.86l12.829-12.829  c1.106,0.86,2.44,1.436,3.898,1.619v10.16c-2.833,0.478-5,2.942-5,5.91c0,3.309,2.691,6,6,6s6-2.691,6-6c0-2.967-2.167-5.431-5-5.91  v-10.16c1.458-0.183,2.792-0.759,3.898-1.619l7.669,7.669C41.215,39.576,41,40.26,41,41c0,2.206,1.794,4,4,4s4-1.794,4-4  s-1.794-4-4-4c-0.74,0-1.424,0.215-2.019,0.567l-7.669-7.669C36.366,28.542,37,26.846,37,25s-0.634-3.542-1.688-4.897l9.665-9.665  C46.042,11.405,47.451,12,49,12c3.309,0,6-2.691,6-6S52.309,0,49,0z M11,9c0-1.103,0.897-2,2-2s2,0.897,2,2s-0.897,2-2,2  S11,10.103,11,9z M6,51c-2.206,0-4-1.794-4-4s1.794-4,4-4s4,1.794,4,4S8.206,51,6,51z M33,49c0,2.206-1.794,4-4,4s-4-1.794-4-4  s1.794-4,4-4S33,46.794,33,49z M29,31c-3.309,0-6-2.691-6-6s2.691-6,6-6s6,2.691,6,6S32.309,31,29,31z M47,41c0,1.103-0.897,2-2,2  s-2-0.897-2-2s0.897-2,2-2S47,39.897,47,41z M49,10c-2.206,0-4-1.794-4-4s1.794-4,4-4s4,1.794,4,4S51.206,10,49,10z" data-original="#000000" class="active-path" data-old_color="#000000" fill="#FFFFFF"/></g> </svg>
